dist/images/error.svg

<svg width="362" height="362" viewBox="0 0 362 362" fill="none" xmlns="http://www.w3.org/2000/svg">
<g filter="url(#filter0_d_104_344)">
<rect width="350" height="350" transform="translate(6 6)" fill="#F2F0F9"/>
<path d="M307 32L327 52" stroke="#6E6893" stroke-width="3" stroke-linecap="round"/>
<path d="M307 52L327 32" stroke="#6E6893" stroke-width="3" stroke-linecap="round"/>
<path d="M136 115L226 205" stroke="#D80101" stroke-width="3" stroke-linecap="round"/>
<path d="M136 205L226 115" stroke="#D80101" stroke-width="3" stroke-linecap="round"/>
<path d="M55.6683 242.909H58.3594V247.128C58.3594 247.631 58.4467 248.036 58.6214 248.342C58.7962 248.645 59.0668 248.864 59.4332 249.001C59.804 249.133 60.2791 249.199 60.8587 249.199C61.0632 249.199 61.304 249.192 61.581 249.18C61.858 249.163 62.1435 249.139 62.4375 249.109C62.7358 249.08 63.017 249.043 63.2812 249.001C63.5455 248.958 63.7649 248.909 63.9396 248.854V251.04C63.7607 251.099 63.5369 251.153 63.2685 251.2C63.0043 251.242 62.7251 251.281 62.4311 251.315C62.1371 251.344 61.8516 251.368 61.5746 251.385C61.2976 251.402 61.0589 251.411 60.8587 251.411C59.8061 251.411 58.8899 251.261 58.1101 250.963C57.3303 250.661 56.7273 250.194 56.3011 249.563C55.8793 248.933 55.6683 248.121 55.6683 247.128V242.909ZM63.4602 242.909H66.1641V256H63.4602V242.909ZM70.2029 245.191V242.909H80.9543V245.191H76.9465V256H74.2107V245.191H70.2029ZM95.9571 249.455C95.9571 250.882 95.6865 252.097 95.1453 253.098C94.6083 254.099 93.8754 254.864 92.9464 255.393C92.0217 255.917 90.9819 256.179 89.8271 256.179C88.6637 256.179 87.6197 255.915 86.695 255.386C85.7703 254.858 85.0395 254.093 84.5025 253.092C83.9656 252.09 83.6971 250.878 83.6971 249.455C83.6971 248.027 83.9656 246.812 84.5025 245.811C85.0395 244.81 85.7703 244.047 86.695 243.523C87.6197 242.994 88.6637 242.73 89.8271 242.73C90.9819 242.73 92.0217 242.994 92.9464 243.523C93.8754 244.047 94.6083 244.81 95.1453 245.811C95.6865 246.812 95.9571 248.027 95.9571 249.455ZM93.151 249.455C93.151 248.53 93.0125 247.75 92.7355 247.115C92.4627 246.48 92.0771 245.999 91.5785 245.67C91.0799 245.342 90.4961 245.178 89.8271 245.178C89.1581 245.178 88.5743 245.342 88.0757 245.67C87.5771 245.999 87.1893 246.48 86.9123 247.115C86.6396 247.75 86.5032 248.53 86.5032 249.455C86.5032 250.379 86.6396 251.159 86.9123 251.794C87.1893 252.429 87.5771 252.911 88.0757 253.239C88.5743 253.567 89.1581 253.731 89.8271 253.731C90.4961 253.731 91.0799 253.567 91.5785 253.239C92.0771 252.911 92.4627 252.429 92.7355 251.794C93.0125 251.159 93.151 250.379 93.151 249.455ZM105.873 248.374V250.535H99.9032V248.374H105.873ZM109.001 245.191V242.909H119.753V245.191H115.745V256H113.009V245.191H109.001ZM134.756 249.455C134.756 250.882 134.485 252.097 133.944 253.098C133.407 254.099 132.674 254.864 131.745 255.393C130.82 255.917 129.78 256.179 128.626 256.179C127.462 256.179 126.418 255.915 125.493 255.386C124.569 254.858 123.838 254.093 123.301 253.092C122.764 252.09 122.496 250.878 122.496 249.455C122.496 248.027 122.764 246.812 123.301 245.811C123.838 244.81 124.569 244.047 125.493 243.523C126.418 242.994 127.462 242.73 128.626 242.73C129.78 242.73 130.82 242.994 131.745 243.523C132.674 244.047 133.407 244.81 133.944 245.811C134.485 246.812 134.756 248.027 134.756 249.455ZM131.949 249.455C131.949 248.53 131.811 247.75 131.534 247.115C131.261 246.48 130.876 245.999 130.377 245.67C129.878 245.342 129.295 245.178 128.626 245.178C127.956 245.178 127.373 245.342 126.874 245.67C126.376 245.999 125.988 246.48 125.711 247.115C125.438 247.75 125.302 248.53 125.302 249.455C125.302 250.379 125.438 251.159 125.711 251.794C125.988 252.429 126.376 252.911 126.874 253.239C127.373 253.567 127.956 253.731 128.626 253.731C129.295 253.731 129.878 253.567 130.377 253.239C130.876 252.911 131.261 252.429 131.534 251.794C131.811 251.159 131.949 250.379 131.949 249.455ZM155.7 242.909V256H152.965V245.159H147.672V256H144.936V242.909H155.7ZM172.165 249.455C172.165 250.882 171.895 252.097 171.353 253.098C170.817 254.099 170.084 254.864 169.155 255.393C168.23 255.917 167.19 256.179 166.035 256.179C164.872 256.179 163.828 255.915 162.903 255.386C161.978 254.858 161.248 254.093 160.711 253.092C160.174 252.09 159.905 250.878 159.905 249.455C159.905 248.027 160.174 246.812 160.711 245.811C161.248 244.81 161.978 244.047 162.903 243.523C163.828 242.994 164.872 242.73 166.035 242.73C167.19 242.73 168.23 242.994 169.155 243.523C170.084 244.047 170.817 244.81 171.353 245.811C171.895 246.812 172.165 248.027 172.165 249.455ZM169.359 249.455C169.359 248.53 169.221 247.75 168.944 247.115C168.671 246.48 168.285 245.999 167.787 245.67C167.288 245.342 166.704 245.178 166.035 245.178C165.366 245.178 164.782 245.342 164.284 245.67C163.785 245.999 163.398 246.48 163.121 247.115C162.848 247.75 162.711 248.53 162.711 249.455C162.711 250.379 162.848 251.159 163.121 251.794C163.398 252.429 163.785 252.911 164.284 253.239C164.782 253.567 165.366 253.731 166.035 253.731C166.704 253.731 167.288 253.567 167.787 253.239C168.285 252.911 168.671 252.429 168.944 251.794C169.221 251.159 169.359 250.379 169.359 249.455ZM176.54 242.909H179.243V253.776H183.002V242.909H185.693V253.776H189.407V242.909H192.098V256H176.54V242.909ZM195.985 256V253.776L196.356 253.744C196.833 253.705 197.219 253.524 197.513 253.2C197.807 252.872 198.026 252.35 198.171 251.634C198.32 250.914 198.416 249.947 198.459 248.732L198.676 242.909H207.561V256H204.87V245.127H201.246L201.041 249.685C200.973 251.151 200.798 252.348 200.517 253.277C200.24 254.206 199.797 254.892 199.187 255.335C198.582 255.778 197.753 256 196.701 256H195.985ZM223.673 249.455C223.673 250.882 223.402 252.097 222.861 253.098C222.324 254.099 221.591 254.864 220.662 255.393C219.737 255.917 218.698 256.179 217.543 256.179C216.379 256.179 215.335 255.915 214.411 255.386C213.486 254.858 212.755 254.093 212.218 253.092C211.681 252.09 211.413 250.878 211.413 249.455C211.413 248.027 211.681 246.812 212.218 245.811C212.755 244.81 213.486 244.047 214.411 243.523C215.335 242.994 216.379 242.73 217.543 242.73C218.698 242.73 219.737 242.994 220.662 243.523C221.591 244.047 222.324 244.81 222.861 245.811C223.402 246.812 223.673 248.027 223.673 249.455ZM220.867 249.455C220.867 248.53 220.728 247.75 220.451 247.115C220.178 246.48 219.793 245.999 219.294 245.67C218.796 245.342 218.212 245.178 217.543 245.178C216.874 245.178 216.29 245.342 215.791 245.67C215.293 245.999 214.905 246.48 214.628 247.115C214.355 247.75 214.219 248.53 214.219 249.455C214.219 250.379 214.355 251.159 214.628 251.794C214.905 252.429 215.293 252.911 215.791 253.239C216.29 253.567 216.874 253.731 217.543 253.731C218.212 253.731 218.796 253.567 219.294 253.239C219.793 252.911 220.178 252.429 220.451 251.794C220.728 251.159 220.867 250.379 220.867 249.455ZM233.489 256V242.909H236.257V248.31H241.875V242.909H244.637V256H241.875V250.592H236.257V256H233.489ZM248.719 256V242.909H257.54V245.191H251.486V248.31H257.086V250.592H251.486V253.718H257.565V256H248.719ZM267.008 245.191V242.909H277.759V245.191H273.751V256H271.015V245.191H267.008ZM281.986 256H279.02L283.54 242.909H287.106L291.619 256H288.653L285.374 245.901H285.272L281.986 256ZM281.801 250.854H288.807V253.015H281.801V250.854ZM302.915 256L298.709 250.42H297.763V256H294.995V242.909H297.763V248.138H298.319L302.665 242.909H306.111L301.003 248.982L306.347 256H302.915Z" fill="#6E6893"/>
</g>
<defs>
<filter id="filter0_d_104_344" x="0" y="0" width="362" height="362" filterUnits="userSpaceOnUse" color-interpolation-filters="sRGB">
<feFlood flood-opacity="0" result="BackgroundImageFix"/>
<feColorMatrix in="SourceAlpha" type="matrix" values="0 0 0 0 0 0 0 0 0 0 0 0 0 0 0 0 0 0 127 0" result="hardAlpha"/>
<feOffset/>
<feGaussianBlur stdDeviation="3"/>
<feComposite in2="hardAlpha" operator="out"/>
<feColorMatrix type="matrix" values="0 0 0 0 0 0 0 0 0 0 0 0 0 0 0 0 0 0 0.25 0"/>
<feBlend mode="normal" in2="BackgroundImageFix" result="effect1_dropShadow_104_344"/>
<feBlend mode="normal" in="SourceGraphic" in2="effect1_dropShadow_104_344" result="shape"/>
</filter>
</defs>
</svg>

<svg width="362" height="362" fill="none" xmlns="http://www.w3.org/2000/svg"><g filter="url(#a)"><path fill="#F2F0F9" d="M6 6h350v350H6z"/><path d="m307 32 20 20M307 52l20-20" stroke="#6E6893" stroke-width="3" stroke-linecap="round"/><path d="m136 115 90 90M136 205l90-90" stroke="#D80101" stroke-width="3" stroke-linecap="round"/><path d="M55.668 242.909h2.691v4.219c0 .503.088.908.262 1.214.175.303.446.522.812.659.371.132.846.198 1.426.198.204 0 .445-.007.722-.019.277-.017.563-.041.856-.071.299-.029.58-.066.844-.108a4.82 4.82 0 0 0 .659-.147v2.186a4.858 4.858 0 0 1-.671.16c-.265.042-.544.081-.838.115-.294.029-.58.053-.856.07a11.97 11.97 0 0 1-.716.026c-1.053 0-1.97-.15-2.749-.448-.78-.302-1.383-.769-1.809-1.4-.422-.63-.633-1.442-.633-2.435v-4.219Zm7.792 0h2.704V256H63.46v-13.091Zm6.743 2.282v-2.282h10.751v2.282h-4.007V256H74.21v-10.809h-4.008Zm25.754 4.264c0 1.427-.27 2.642-.812 3.643-.537 1.001-1.27 1.766-2.199 2.295-.924.524-1.964.786-3.119.786-1.163 0-2.207-.264-3.132-.793-.925-.528-1.655-1.293-2.192-2.294-.537-1.002-.806-2.214-.806-3.637 0-1.428.269-2.643.805-3.644.538-1.001 1.268-1.764 2.193-2.288.925-.529 1.969-.793 3.132-.793 1.155 0 2.195.264 3.12.793.928.524 1.661 1.287 2.198 2.288.541 1.001.812 2.216.812 3.644Zm-2.806 0c0-.925-.138-1.705-.415-2.34-.273-.635-.659-1.116-1.157-1.445-.5-.328-1.083-.492-1.752-.492s-1.253.164-1.751.492c-.499.329-.887.81-1.164 1.445-.272.635-.409 1.415-.409 2.34 0 .924.137 1.704.41 2.339.276.635.664 1.117 1.163 1.445.498.328 1.082.492 1.751.492.67 0 1.253-.164 1.752-.492.498-.328.884-.81 1.157-1.445.276-.635.415-1.415.415-2.339Zm12.722-1.081v2.161h-5.97v-2.161h5.97Zm3.128-3.183v-2.282h10.752v2.282h-4.008V256h-2.736v-10.809h-4.008Zm25.755 4.264c0 1.427-.271 2.642-.812 3.643-.537 1.001-1.27 1.766-2.199 2.295-.925.524-1.965.786-3.119.786-1.164 0-2.208-.264-3.133-.793-.924-.528-1.655-1.293-2.192-2.294-.537-1.002-.805-2.214-.805-3.637 0-1.428.268-2.643.805-3.644.537-1.001 1.268-1.764 2.192-2.288.925-.529 1.969-.793 3.133-.793 1.154 0 2.194.264 3.119.793.929.524 1.662 1.287 2.199 2.288.541 1.001.812 2.216.812 3.644Zm-2.807 0c0-.925-.138-1.705-.415-2.34-.273-.635-.658-1.116-1.157-1.445-.499-.328-1.082-.492-1.751-.492-.67 0-1.253.164-1.752.492-.498.329-.886.81-1.163 1.445-.273.635-.409 1.415-.409 2.34 0 .924.136 1.704.409 2.339.277.635.665 1.117 1.163 1.445.499.328 1.082.492 1.752.492.669 0 1.252-.164 1.751-.492.499-.328.884-.81 1.157-1.445.277-.635.415-1.415.415-2.339Zm23.751-6.546V256h-2.735v-10.841h-5.293V256h-2.736v-13.091H155.7Zm16.465 6.546c0 1.427-.27 2.642-.812 3.643-.536 1.001-1.269 1.766-2.198 2.295-.925.524-1.965.786-3.12.786-1.163 0-2.207-.264-3.132-.793-.925-.528-1.655-1.293-2.192-2.294-.537-1.002-.806-2.214-.806-3.637 0-1.428.269-2.643.806-3.644.537-1.001 1.267-1.764 2.192-2.288.925-.529 1.969-.793 3.132-.793 1.155 0 2.195.264 3.12.793.929.524 1.662 1.287 2.198 2.288.542 1.001.812 2.216.812 3.644Zm-2.806 0c0-.925-.138-1.705-.415-2.34-.273-.635-.659-1.116-1.157-1.445-.499-.328-1.083-.492-1.752-.492s-1.253.164-1.751.492c-.499.329-.886.81-1.163 1.445-.273.635-.41 1.415-.41 2.34 0 .924.137 1.704.41 2.339.277.635.664 1.117 1.163 1.445.498.328 1.082.492 1.751.492.669 0 1.253-.164 1.752-.492.498-.328.884-.81 1.157-1.445.277-.635.415-1.415.415-2.339Zm7.181-6.546h2.703v10.867h3.759v-10.867h2.691v10.867h3.714v-10.867h2.691V256H176.54v-13.091ZM195.985 256v-2.224l.371-.032c.477-.039.863-.22 1.157-.544.294-.328.513-.85.658-1.566.149-.72.245-1.687.288-2.902l.217-5.823h8.885V256h-2.691v-10.873h-3.624l-.205 4.558c-.068 1.466-.243 2.663-.524 3.592-.277.929-.72 1.615-1.33 2.058-.605.443-1.434.665-2.486.665h-.716Zm27.688-6.545c0 1.427-.271 2.642-.812 3.643-.537 1.001-1.27 1.766-2.199 2.295-.925.524-1.964.786-3.119.786-1.164 0-2.208-.264-3.132-.793-.925-.528-1.656-1.293-2.193-2.294-.537-1.002-.805-2.214-.805-3.637 0-1.428.268-2.643.805-3.644.537-1.001 1.268-1.764 2.193-2.288.924-.529 1.968-.793 3.132-.793 1.155 0 2.194.264 3.119.793.929.524 1.662 1.287 2.199 2.288.541 1.001.812 2.216.812 3.644Zm-2.806 0c0-.925-.139-1.705-.416-2.34-.273-.635-.658-1.116-1.157-1.445-.498-.328-1.082-.492-1.751-.492-.669 0-1.253.164-1.752.492-.498.329-.886.81-1.163 1.445-.273.635-.409 1.415-.409 2.34 0 .924.136 1.704.409 2.339.277.635.665 1.117 1.163 1.445.499.328 1.083.492 1.752.492s1.253-.164 1.751-.492c.499-.328.884-.81 1.157-1.445.277-.635.416-1.415.416-2.339ZM233.489 256v-13.091h2.768v5.401h5.618v-5.401h2.762V256h-2.762v-5.408h-5.618V256h-2.768Zm15.23 0v-13.091h8.821v2.282h-6.054v3.119h5.6v2.282h-5.6v3.126h6.079V256h-8.846Zm18.289-10.809v-2.282h10.751v2.282h-4.008V256h-2.736v-10.809h-4.007ZM281.986 256h-2.966l4.52-13.091h3.566L291.619 256h-2.966l-3.279-10.099h-.102L281.986 256Zm-.185-5.146h7.006v2.161h-7.006v-2.161ZM302.915 256l-4.206-5.58h-.946V256h-2.768v-13.091h2.768v5.229h.556l4.346-5.229h3.446l-5.108 6.073 5.344 7.018h-3.432Z" fill="#6E6893"/></g><defs><filter id="a" x="0" y="0" width="362" height="362" filterUnits="userSpaceOnUse" color-interpolation-filters="sRGB"><feFlood flood-opacity="0" result="BackgroundImageFix"/><feColorMatrix in="SourceAlpha" values="0 0 0 0 0 0 0 0 0 0 0 0 0 0 0 0 0 0 127 0" result="hardAlpha"/><feOffset/><feGaussianBlur stdDeviation="3"/><feComposite in2="hardAlpha" operator="out"/><feColorMatrix values="0 0 0 0 0 0 0 0 0 0 0 0 0 0 0 0 0 0 0.25 0"/><feBlend in2="BackgroundImageFix" result="effect1_dropShadow_104_344"/><feBlend in="SourceGraphic" in2="effect1_dropShadow_104_344" result="shape"/></filter></defs></svg>
